;FLAVOR:Repetier
;TIME:5844
;MINX:40.674
;MINY:68.974
;MINZ:0.2
;MAXX:184.904
;MAXY:154.467
;MAXZ:6.35
;Generated with Cura_SteamEngine 4.10.0-0
M190 S65
M104 S210
M109 S210
M82 ;absolute extrusion mode
M911 Style Neo-A22
M201 X400 Y400
M202 X400 Y400
G28 ; Home
;Prime the extruder
G92 E0
G1 F200 E3
G92 E0
G92 E0
G92 E0
G1 F2400 E-1.5
;LAYER_COUNT:40
;LAYER:0
M107
G1 F600 Z0.5
G0 F3600 X43.377 Y75.492 Z0.5
;TYPE:SKIRT
G1 F600 Z0.2
G1 F2400 E0
G1 F1800 X43.845 Y75.299 E0.01684
G1 X44.337 Y75.183 E0.03365
G1 X44.864 Y75.143 E0.05123
G1 X45.342 Y75.136 E0.06713
G1 X134.183 Y75.136 E3.02199
G1 X136.98 Y75.096 E3.11503
G1 X139.697 Y74.981 E3.20548
G1 X142.444 Y74.786 E3.29707
G1 X145.148 Y74.518 E3.38745
G1 X147.872 Y74.17 E3.47879
G1 X150.572 Y73.745 E3.5697
G1 X153.281 Y73.242 E3.66134
G1 X155.905 Y72.677 E3.75061
G1 X158.617 Y72.013 E3.84348
G1 X161.23 Y71.294 E3.93362
G1 X164.814 Y70.177 E4.05848
G1 X165.594 Y69.919 E4.0858
G1 X166.229 Y69.727 E4.10787
G1 X167.335 Y69.409 E4.14614
G1 X167.977 Y69.234 E4.16827
G1 X168.748 Y69.108 E4.19426
G1 X169.204 Y69.074 E4.20947
G1 X170.485 Y69.003 E4.25214
G1 X171.173 Y68.974 E4.27504
G1 X171.705 Y68.996 E4.29275
G1 X171.889 Y69.02 E4.29892
G1 X172.472 Y69.111 E4.31855
G1 X173.647 Y69.312 E4.3582
G1 X174.268 Y69.426 E4.3792
G1 X174.855 Y69.593 E4.39949
G1 X175.938 Y70.017 E4.43818
G1 X176.621 Y70.302 E4.46279
G1 X177.268 Y70.581 E4.48623
G1 X177.841 Y70.895 E4.50796
G1 X178.351 Y71.244 E4.52851
G1 X179.334 Y71.942 E4.56861
G1 X179.847 Y72.318 E4.58977
G1 X180.265 Y72.683 E4.60822
G1 X180.362 Y72.782 E4.61283
G1 X181.137 Y73.616 E4.6507
G1 X181.614 Y74.149 E4.67449
G1 X182.074 Y74.679 E4.69783
G1 X182.433 Y75.186 E4.71849
G1 X182.861 Y75.933 E4.74713
G1 X183.312 Y76.749 E4.77814
G1 X183.666 Y77.412 E4.80314
G1 X183.903 Y77.982 E4.82367
G1 X184.183 Y78.898 E4.85553
G1 X184.425 Y79.74 E4.88467
G1 X184.617 Y80.44 E4.90881
G1 X184.723 Y81.055 E4.92956
G1 X184.79 Y81.989 E4.96071
G1 X184.841 Y82.898 E4.99099
G1 X184.87 Y83.587 E5.01393
G1 X184.837 Y84.2 E5.03434
G1 X184.682 Y85.225 E5.06882
G1 X184.54 Y86.056 E5.09686
G1 X184.406 Y86.776 E5.12122
G1 X184.369 Y86.947 E5.12704
G1 X184.154 Y87.828 E5.1572
G1 X183.915 Y88.751 E5.18891
G1 X183.299 Y91.432 E5.28041
G1 X182.756 Y94.143 E5.37237
G1 X182.3 Y96.816 E5.46256
G1 X181.917 Y99.514 E5.55319
G1 X181.61 Y102.243 E5.64453
G1 X181.378 Y104.988 E5.73616
G1 X181.225 Y107.708 E5.82677
G1 X181.149 Y110.455 E5.91817
G1 X181.151 Y113.174 E6.0086
G1 X181.231 Y115.93 E6.1003
G1 X181.387 Y118.67 E6.19159
G1 X181.62 Y121.387 E6.28228
G1 X181.929 Y124.088 E6.37271
G1 X182.318 Y126.809 E6.46413
G1 X182.783 Y129.519 E6.55558
G1 X183.326 Y132.212 E6.64695
G1 X183.922 Y134.801 E6.73531
G1 X184.554 Y137.239 E6.81908
G1 X184.651 Y137.593 E6.83129
G1 X184.757 Y138.209 E6.85208
G1 X184.823 Y139.113 E6.88223
G1 X184.876 Y140.075 E6.91427
G1 X184.904 Y140.742 E6.93648
G1 X184.871 Y141.352 E6.95679
G1 X184.719 Y142.359 E6.99067
G1 X184.572 Y143.227 E7.01995
G1 X184.455 Y143.864 E7.04149
G1 X184.277 Y144.501 E7.06349
G1 X184.056 Y145.067 E7.0837
G1 X183.589 Y146.195 E7.1243
G1 X183.342 Y146.767 E7.14502
G1 X182.989 Y147.409 E7.16939
G1 X182.359 Y148.338 E7.20673
G1 X181.93 Y148.942 E7.23137
G1 X181.588 Y149.409 E7.25062
G1 X181.241 Y149.822 E7.26856
G1 X180.858 Y150.204 E7.28655
G1 X179.797 Y151.154 E7.33392
G1 X179.234 Y151.641 E7.35868
G1 X178.675 Y152.043 E7.38158
G1 X178.184 Y152.329 E7.40048
G1 X177.137 Y152.906 E7.44024
G1 X176.465 Y153.265 E7.46558
G1 X175.895 Y153.502 E7.48611
G1 X174.986 Y153.781 E7.51774
G1 X174.121 Y154.03 E7.54768
G1 X173.449 Y154.212 E7.57083
G1 X172.857 Y154.318 E7.59084
G1 X172.17 Y154.372 E7.61376
G1 X170.927 Y154.44 E7.65516
G1 X170.266 Y154.467 E7.67716
G1 X169.656 Y154.434 E7.69748
G1 X168.694 Y154.288 E7.72984
G1 X167.872 Y154.148 E7.75758
G1 X167.119 Y154.009 E7.78305
G1 X166.718 Y153.908 E7.7968
G1 X165.544 Y153.529 E7.83783
G1 X165.049 Y153.362 E7.85521
G1 X162.441 Y152.561 E7.94595
G1 X159.804 Y151.832 E8.03694
G1 X157.148 Y151.178 E8.12792
G1 X154.443 Y150.591 E8.21999
G1 X151.796 Y150.1 E8.30953
G1 X149.082 Y149.671 E8.40092
G1 X146.345 Y149.318 E8.4927
G1 X143.643 Y149.047 E8.58302
G1 X140.897 Y148.851 E8.67459
G1 X138.183 Y148.734 E8.76494
G1 X135.298 Y148.691 E8.8609
G1 X45.514 Y148.691 E11.84713
G1 X44.813 Y148.681 E11.87045
G1 X44.31 Y148.634 E11.88725
G1 X43.82 Y148.508 E11.90408
G1 X43.357 Y148.306 E11.92088
G1 X42.93 Y148.034 E11.93772
G1 X42.491 Y147.64 E11.95734
G1 X42.161 Y147.256 E11.97418
G1 X41.896 Y146.826 E11.99098
G1 X41.638 Y146.138 E12.01542
G1 X41.153 Y144.183 E12.08241
G1 X40.833 Y142.956 E12.12459
G1 X40.731 Y142.214 E12.1495
G1 X40.708 Y141.07 E12.18756
G1 X40.708 Y139.764 E12.23099
G1 X40.719 Y139.058 E12.25448
G1 X40.81 Y138.35 E12.27822
G1 X41.081 Y137.238 E12.31629
G1 X41.545 Y135.226 E12.38496
G1 X41.589 Y135.048 E12.39106
G1 X42.202 Y132.387 E12.48189
G1 X42.738 Y129.716 E12.5725
G1 X43.202 Y127.008 E12.66388
G1 X43.594 Y124.269 E12.7559
G1 X43.901 Y121.573 E12.84615
G1 X44.131 Y118.864 E12.93658
G1 X44.287 Y116.117 E13.02809
G1 X44.366 Y113.363 E13.11973
G1 X44.366 Y110.644 E13.21016
G1 X44.289 Y107.896 E13.3016
G1 X44.135 Y105.177 E13.39218
G1 X43.903 Y102.435 E13.4837
G1 X43.594 Y99.705 E13.57508
G1 X43.209 Y97.006 E13.66576
G1 X42.751 Y94.327 E13.75616
G1 X42.2 Y91.58 E13.84934
G1 X41.746 Y89.574 E13.91775
G1 X41.61 Y89.002 E13.9373
G1 X41.126 Y87.051 E14.00416
G1 X40.8 Y85.802 E14.04709
G1 X40.697 Y85.059 E14.07204
G1 X40.674 Y83.915 E14.1101
G1 X40.674 Y82.595 E14.154
G1 X40.685 Y81.902 E14.17706
G1 X40.777 Y81.191 E14.2009
G1 X41.041 Y80.114 E14.23778
G1 X41.521 Y78.033 E14.30881
G1 X41.601 Y77.704 E14.32008
G1 X41.758 Y77.224 E14.33687
G1 X41.99 Y76.774 E14.35371
G1 X42.447 Y76.197 E14.37819
G1 X42.561 Y76.083 E14.38356
G1 X42.946 Y75.755 E14.40038
G1 X43.377 Y75.492 E14.41717
G1 F2400 E12.91717
G1 F600 Z0.5
G0 F3600 X44.902 Y78.536 Z0.5
;TYPE:SUPPORT
G1 F600 Z0.2
G1 F2400 E14.41717
G1 F1800 X159.802 Y78.536 E18.23876
G1 X159.282 Y79.786 E18.28379
G1 X159.19 Y80.235 E18.29903
G1 X158.825 Y82.382 E18.37147
G1 X158.825 Y82.747 E18.38361
G1 X158.951 Y85.004 E18.45879
G1 X159.026 Y85.375 E18.47138
G1 X159.65 Y87.547 E18.54655
G1 X159.934 Y88.136 E18.56829
G1 X44.902 Y88.136 E22.39427
G1 X44.902 Y85.475 E22.48278
G1 X44.614 Y85.041 E22.5001
G1 X44.074 Y84.815 E22.51957
G1 X44.074 Y82.085 E22.61037
G1 X44.614 Y81.859 E22.62984
G1 X44.902 Y81.425 E22.64717
G1 X44.902 Y78.536 E22.74326
G0 F3600 X45.061 Y79.376
G1 F1800 X159.278 Y79.376 E26.54213
G1 F2400 E25.04213
G1 F600 Z0.5
G0 F3600 X157.886 Y78.696 Z0.5
G1 F600 Z0.2
G1 F2400 E26.54213
G1 F1800 X157.886 Y87.976 E26.85078
G1 F2400 E25.35078
G1 F600 Z0.5
G0 F3600 X159.434 Y87.377 Z0.5
G1 F600 Z0.2
G1 F2400 E26.85078
G1 F1800 X45.061 Y87.377 E30.65484
G1 F2400 E29.15484
G1 F600 Z0.5
G0 F3600 X45.872 Y87.976 Z0.5
G1 F600 Z0.2
G1 F2400 E30.65484
G1 F1800 X45.872 Y78.696 E30.9635
G1 F2400 E29.4635
G1 F600 Z0.5
G0 F3600 X48.539 Y78.696 Z0.5
G1 F600 Z0.2
G1 F2400 E30.9635
G1 F1800 X48.539 Y87.976 E31.27215
G1 F2400 E29.77215
G1 F600 Z0.5
G0 F3600 X51.206 Y87.976 Z0.5
G1 F600 Z0.2
G1 F2400 E31.27215
G1 F1800 X51.206 Y78.696 E31.58081
G1 F2400 E30.08081
G1 F600 Z0.5
G0 F3600 X53.873 Y78.696 Z0.5
G1 F600 Z0.2
G1 F2400 E31.58081
G1 F1800 X53.873 Y87.976 E31.88946
G1 F2400 E30.38946
G1 F600 Z0.5
G0 F3600 X56.54 Y87.976 Z0.5
G1 F600 Z0.2
G1 F2400 E31.88946
G1 F1800 X56.54 Y78.696 E32.19811
G1 F2400 E30.69811
G1 F600 Z0.5
G0 F3600 X59.207 Y78.696 Z0.5
G1 F600 Z0.2
G1 F2400 E32.19811
G1 F1800 X59.207 Y87.976 E32.50677
G1 F2400 E31.00677
G1 F600 Z0.5
G0 F3600 X61.874 Y87.976 Z0.5
G1 F600 Z0.2
G1 F2400 E32.50677
G1 F1800 X61.874 Y78.696 E32.81542
G1 F2400 E31.31542
G1 F600 Z0.5
G0 F3600 X64.541 Y78.696 Z0.5
G1 F600 Z0.2
G1 F2400 E32.81542
G1 F1800 X64.541 Y87.976 E33.12408
G1 F2400 E31.62408
G1 F600 Z0.5
G0 F3600 X67.208 Y87.976 Z0.5
G1 F600 Z0.2
G1 F2400 E33.12408
G1 F1800 X67.208 Y78.696 E33.43273
G1 F2400 E31.93273
G1 F600 Z0.5
G0 F3600 X69.875 Y78.696 Z0.5
G1 F600 Z0.2
G1 F2400 E33.43273
G1 F1800 X69.875 Y87.976 E33.74138
G1 F2400 E32.24138
G1 F600 Z0.5
G0 F3600 X72.542 Y87.976 Z0.5
G1 F600 Z0.2
G1 F2400 E33.74138
G1 F1800 X72.542 Y78.696 E34.05004
G1 F2400 E32.55004
G1 F600 Z0.5
G0 F3600 X75.209 Y78.696 Z0.5
G1 F600 Z0.2
G1 F2400 E34.05004
G1 F1800 X75.209 Y87.976 E34.35869
G1 F2400 E32.85869
G1 F600 Z0.5
G0 F3600 X77.876 Y87.976 Z0.5
G1 F600 Z0.2
G1 F2400 E34.35869
G1 F1800 X77.876 Y78.696 E34.66735
G1 F2400 E33.16735
G1 F600 Z0.5
G0 F3600 X80.543 Y78.696 Z0.5
G1 F600 Z0.2
G1 F2400 E34.66735
G1 F1800 X80.543 Y87.976 E34.976
G1 F2400 E33.476
G1 F600 Z0.5
G0 F3600 X83.21 Y87.976 Z0.5
G1 F600 Z0.2
G1 F2400 E34.976
G1 F1800 X83.21 Y78.696 E35.28465
G1 F2400 E33.78465
G1 F600 Z0.5
G0 F3600 X85.877 Y78.696 Z0.5
G1 F600 Z0.2
G1 F2400 E35.28465
G1 F1800 X85.877 Y87.976 E35.59331
G1 F2400 E34.09331
G1 F600 Z0.5
G0 F3600 X88.544 Y87.976 Z0.5
G1 F600 Z0.2
G1 F2400 E35.59331
G1 F1800 X88.544 Y78.696 E35.90196
G1 F2400 E34.40196
G1 F600 Z0.5
G0 F3600 X91.211 Y78.696 Z0.5
G1 F600 Z0.2
G1 F2400 E35.90196
G1 F1800 X91.211 Y87.976 E36.21062
G1 F2400 E34.71062
G1 F600 Z0.5
G0 F3600 X93.878 Y87.976 Z0.5
G1 F600 Z0.2
G1 F2400 E36.21062
G1 F1800 X93.878 Y78.696 E36.51927
G1 F2400 E35.01927
G1 F600 Z0.5
G0 F3600 X96.545 Y78.696 Z0.5
G1 F600 Z0.2
G1 F2400 E36.51927
G1 F1800 X96.545 Y87.976 E36.82793
G1 F2400 E35.32793
G1 F600 Z0.5
G0 F3600 X99.212 Y87.976 Z0.5
G1 F600 Z0.2
G1 F2400 E36.82793
G1 F1800 X99.212 Y78.696 E37.13658
G1 F2400 E35.63658
G1 F600 Z0.5
G0 F3600 X101.879 Y78.696 Z0.5
G1 F600 Z0.2
G1 F2400 E37.13658
G1 F1800 X101.879 Y87.976 E37.44523
G1 F2400 E35.94523
G1 F600 Z0.5
G0 F3600 X104.546 Y87.976 Z0.5
G1 F600 Z0.2
G1 F2400 E37.44523
G1 F1800 X104.546 Y78.696 E37.75389
G1 F2400 E36.25389
G1 F600 Z0.5
G0 F3600 X107.213 Y78.696 Z0.5
G1 F600 Z0.2
G1 F2400 E37.75389
G1 F1800 X107.213 Y87.976 E38.06254
G1 F2400 E36.56254
G1 F600 Z0.5
G0 F3600 X109.88 Y87.976 Z0.5
G1 F600 Z0.2
G1 F2400 E38.06254
G1 F1800 X109.88 Y78.696 E38.3712
G1 F2400 E36.8712
G1 F600 Z0.5
G0 F3600 X112.547 Y78.696 Z0.5
G1 F600 Z0.2
G1 F2400 E38.3712
G1 F1800 X112.547 Y87.976 E38.67985
G1 F2400 E37.17985
G1 F600 Z0.5
G0 F3600 X115.214 Y87.976 Z0.5
G1 F600 Z0.2
G1 F2400 E38.67985
G1 F1800 X115.214 Y78.696 E38.9885
G1 F2400 E37.4885
G1 F600 Z0.5
G0 F3600 X117.881 Y78.696 Z0.5
G1 F600 Z0.2
G1 F2400 E38.9885
G1 F1800 X117.881 Y87.976 E39.29716
G1 F2400 E37.79716
G1 F600 Z0.5
G0 F3600 X120.548 Y87.976 Z0.5
G1 F600 Z0.2
G1 F2400 E39.29716
G1 F1800 X120.548 Y78.696 E39.60581
G1 F2400 E38.10581
G1 F600 Z0.5
G0 F3600 X123.215 Y78.696 Z0.5
G1 F600 Z0.2
G1 F2400 E39.60581
G1 F1800 X123.215 Y87.976 E39.91447
G1 F2400 E38.41447
G1 F600 Z0.5
G0 F3600 X125.882 Y87.976 Z0.5
G1 F600 Z0.2
G1 F2400 E39.91447
G1 F1800 X125.882 Y78.696 E40.22312
G1 F2400 E38.72312
G1 F600 Z0.5
G0 F3600 X128.549 Y78.696 Z0.5
G1 F600 Z0.2
G1 F2400 E40.22312
G1 F1800 X128.549 Y87.976 E40.53177
G1 F2400 E39.03177
G1 F600 Z0.5
G0 F3600 X131.216 Y87.976 Z0.5
G1 F600 Z0.2
G1 F2400 E40.53177
G1 F1800 X131.216 Y78.696 E40.84043
G1 F2400 E39.34043
G1 F600 Z0.5
G0 F3600 X133.883 Y78.696 Z0.5
G1 F600 Z0.2
G1 F2400 E40.84043
G1 F1800 X133.883 Y87.976 E41.14908
G1 F2400 E39.64908
G1 F600 Z0.5
G0 F3600 X136.55 Y87.976 Z0.5
G1 F600 Z0.2
G1 F2400 E41.14908
G1 F1800 X136.55 Y78.696 E41.45774
G1 F2400 E39.95774
G1 F600 Z0.5
G0 F3600 X139.217 Y78.696 Z0.5
G1 F600 Z0.2
G1 F2400 E41.45774
G1 F1800 X139.217 Y87.976 E41.76639
G1 F2400 E40.26639
G1 F600 Z0.5
G0 F3600 X141.884 Y87.976 Z0.5
G1 F600 Z0.2
G1 F2400 E41.76639
G1 F1800 X141.884 Y78.696 E42.07504
G1 F2400 E40.57504
G1 F600 Z0.5
G0 F3600 X144.551 Y78.696 Z0.5
G1 F600 Z0.2
G1 F2400 E42.07504
G1 F1800 X144.551 Y87.976 E42.3837
G1 F2400 E40.8837
G1 F600 Z0.5
G0 F3600 X147.218 Y87.976 Z0.5
G1 F600 Z0.2
G1 F2400 E42.3837
G1 F1800 X147.218 Y78.696 E42.69235
G1 F2400 E41.19235
G1 F600 Z0.5
G0 F3600 X149.885 Y78.696 Z0.5
G1 F600 Z0.2
G1 F2400 E42.69235
G1 F1800 X149.885 Y87.976 E43.00101
G1 F2400 E41.50101
G1 F600 Z0.5
G0 F3600 X152.552 Y87.976 Z0.5
G1 F600 Z0.2
G1 F2400 E43.00101
G1 F1800 X152.552 Y78.696 E43.30966
G1 F2400 E41.80966
G1 F600 Z0.5
G0 F3600 X155.219 Y78.696 Z0.5
G1 F600 Z0.2
G1 F2400 E43.30966
G1 F1800 X155.219 Y87.976 E43.61831
G1 F2400 E42.11831
G1 F600 Z0.5
G0 F3600 X158.775 Y84.71 Z0.5
G1 F600 Z0.2
G1 F2400 E43.61831
G1 F1800 X44.235 Y84.71 E47.42793
G1 F2400 E45.92793
G1 F600 Z0.5
G0 F3600 X44.589 Y82.043 Z0.5
G1 F600 Z0.2
G1 F2400 E47.42793
G1 F1800 X158.719 Y82.043 E51.22391
G1 F2400 E49.72391
G1 F600 Z0.5
G0 F3600 X159.837 Y135.691 Z0.5
G1 F600 Z0.2
G1 F2400 E51.22391
G1 F1800 X159.317 Y136.941 E51.26894
G1 X159.225 Y137.389 E51.28415
G1 X158.859 Y139.537 E51.35662
G1 X158.859 Y139.901 E51.36873
G1 X158.985 Y142.158 E51.44391
G1 X159.06 Y142.53 E51.45654
G1 X159.684 Y144.702 E51.5317
G1 X159.968 Y145.291 E51.55345
G1 X44.936 Y145.291 E55.37943
G1 X44.936 Y142.63 E55.46793
G1 X44.648 Y142.196 E55.48526
G1 X44.108 Y141.97 E55.50473
G1 X44.108 Y139.239 E55.59556
G1 X44.648 Y139.013 E55.61503
G1 X44.936 Y138.579 E55.63235
G1 X44.936 Y135.691 E55.72841
G1 X159.837 Y135.691 E59.55003
G1 F2400 E58.05003
G1 F600 Z0.5
G0 F3600 X157.886 Y135.851 Z0.5
G1 F600 Z0.2
G1 F2400 E59.55003
G1 F1800 X157.886 Y145.131 E59.85869
G1 F2400 E58.35869
G1 F600 Z0.5
G0 F3600 X159.139 Y143.384 Z0.5
G1 F600 Z0.2
G1 F2400 E59.85869
G1 F1800 X45.095 Y143.384 E63.65181
G1 F2400 E62.15181
G1 F600 Z0.5
G0 F3600 X45.872 Y145.131 Z0.5
G1 F600 Z0.2
G1 F2400 E63.65181
G1 F1800 X45.872 Y135.851 E63.96046
G1 F2400 E62.46046
G1 F600 Z0.5
G0 F3600 X45.095 Y138.05 Z0.5
G1 F600 Z0.2
G1 F2400 E63.96046
G1 F1800 X158.949 Y138.05 E67.74726
G1 F2400 E66.24726
G1 F600 Z0.5
G0 F3600 X158.745 Y140.717 Z0.5
G1 F600 Z0.2
G1 F2400 E67.74726
G1 F1800 X44.267 Y140.717 E71.55481
G1 F2400 E70.05481
G1 F600 Z0.5
G0 F3600 X48.539 Y145.131 Z0.5
G1 F600 Z0.2
G1 F2400 E71.55481
G1 F1800 X48.539 Y135.851 E71.86347
G1 F2400 E70.36347
G1 F600 Z0.5
G0 F3600 X51.206 Y135.851 Z0.5
G1 F600 Z0.2
G1 F2400 E71.86347
G1 F1800 X51.206 Y145.131 E72.17212
G1 F2400 E70.67212
G1 F600 Z0.5
G0 F3600 X53.873 Y145.131 Z0.5
G1 F600 Z0.2
G1 F2400 E72.17212
G1 F1800 X53.873 Y135.851 E72.48077
G1 F2400 E70.98077
G1 F600 Z0.5
G0 F3600 X56.54 Y135.851 Z0.5
G1 F600 Z0.2
G1 F2400 E72.48077
G1 F1800 X56.54 Y145.131 E72.78943
G1 F2400 E71.28943
G1 F600 Z0.5
G0 F3600 X59.207 Y145.131 Z0.5
G1 F600 Z0.2
G1 F2400 E72.78943
G1 F1800 X59.207 Y135.851 E73.09808
G1 F2400 E71.59808
G1 F600 Z0.5
G0 F3600 X61.874 Y135.851 Z0.5
G1 F600 Z0.2
G1 F2400 E73.09808
G1 F1800 X61.874 Y145.131 E73.40674
G1 F2400 E71.90674
G1 F600 Z0.5
G0 F3600 X64.541 Y145.131 Z0.5
G1 F600 Z0.2
G1 F2400 E73.40674
G1 F1800 X64.541 Y135.851 E73.71539
G1 F2400 E72.21539
G1 F600 Z0.5
G0 F3600 X67.208 Y135.851 Z0.5
G1 F600 Z0.2
G1 F2400 E73.71539
G1 F1800 X67.208 Y145.131 E74.02404
G1 F2400 E72.52404
G1 F600 Z0.5
G0 F3600 X69.875 Y145.131 Z0.5
G1 F600 Z0.2
G1 F2400 E74.02404
G1 F1800 X69.875 Y135.851 E74.3327
G1 F2400 E72.8327
G1 F600 Z0.5
G0 F3600 X72.542 Y135.851 Z0.5
G1 F600 Z0.2
G1 F2400 E74.3327
G1 F1800 X72.542 Y145.131 E74.64135
G1 F2400 E73.14135
G1 F600 Z0.5
G0 F3600 X75.209 Y145.131 Z0.5
G1 F600 Z0.2
G1 F2400 E74.64135
G1 F1800 X75.209 Y135.851 E74.95001
G1 F2400 E73.45001
G1 F600 Z0.5
G0 F3600 X77.876 Y135.851 Z0.5
G1 F600 Z0.2
G1 F2400 E74.95001
G1 F1800 X77.876 Y145.131 E75.25866
G1 F2400 E73.75866
G1 F600 Z0.5
G0 F3600 X80.543 Y145.131 Z0.5
